X: 10
T:My Son's A Prawn
% Nottingham Music Database
S:Kevin Briggs, via EF
M:4/4
L:1/4
K:A
e/2d/2|"A"cA A/2B/2A/2F/2|"A"E/2F/2A/2B/2 d/2c/2B/2A/2|"Bm"dB B/2c/2B/2A/2|\
"E7"B/2c/2d/2e/2 g/2f/2e/2d/2|
"A"cA A/2B/2A/2F/2|"A"E/2F/2A/2B/2 d/2c/2B/2A/2|"D"B/2c/2d/2e/2 f/2e/2f/2a/2|\
"E7"e/2d/2c/2B/2 "A"A::
e/2d/2|"A"c/2A/2e/2A/2 f/2A/2e/2A/2|"A"c/2A/2e/2A/2 f/2e/2d/2c/2|\
"Bm"d/2B/2f/2B/2 g/2B/2f/2B/2|"Bm"d/2B/2f/2B/2 "E7"g/2f/2e/2d/2|
"A"c/2A/2e/2A/2 f/2A/2e/2A/2|"A"c/2A/2e/2A/2 f/2e/2d/2c/2|\
"D"B/2c/2d/2e/2 f/2e/2f/2a/2|"E7"e/2d/2c/2B/2 "A"A:|


